X: 10
T: HEART AND SOUL
C: H.Carmichael
%%staffsep 30
M: C|
L: 1/8
K: F
|:"F"F2F2 "Dm"F4 | "Gm"zFED "C7"EFG2 | "F"A2A2 "Dm"A4 | "Gm"zAGF "C7"GAB2 |
"F"c4 "Dm"F4 | "Gm"zdcB "C7"A2G2 | "F"F4- "Dm"FGAB |1 "Gm"c2BA "C7"G4 :|2 "F"c2F2- "F7"F4 ||
"Bb"zdcB "A7"A2G2 | "D7"^F4 "G7"G4 | "C7"E4 "F7"=F4 | "E7"D4 "A7"E4 |
"Bb"zdcB "A7"A2G2 | "D7"^F4 "G7"G4 | "C7"E4 "F7"=F4 | "E7"D4 "C7"E2C2 ||
"F"F2F2 "Dm"F4 | "Gm"zFED "C7"EFG2 | "F"A2A2 "Dm"A4 | "Gm"zAGF "C7"GAB2 |
"F"c4 "Dm"F4 | "Gm"zdcB "C7"A2G2 | "A7"A4-"D7"A4 | "Gm"zBAG "C7"F2E2 | "F"F8- | F4 z4 |]
